X:1
T:Quiz for mdi1972
T:Siegfried's Funeral March
T:Richard Wagner
T:From the Opera "Götterdämmerung"
T:Piano solo arrangement by Ferruccio Busoni
C:?
%%score { ( 1 4 5 7 ) | ( 2 3 6 ) }
L:1/8
Q:1/4=54
M:4/4
K:C
V:1 treble nm="Piano" snm="Pno."
V:4 treble 
V:5 treble 
V:7 treble 
V:2 bass 
V:3 bass 
V:6 bass 
V:1
"^Lento assai" z8 | z8 | %2
 z4[K:bass] z2!pp!!<)!!<(! (9:4:9(1:1:3^C,/D,/^D,/(1:1:3E,/^E,/^F,/(1:1:3A,/^G,/=G,/ | %3
!p!!<(! G,6!mp! ^F,>G,!<)! | E6 C2 | _A,4- A,G,_B,A, | z8 | %7
!pp! [^C,,^C,]/[C,,C,]/ z z3/2 [C,,C,]/ [C,,C,] z!pp!!<)!!<(! (9:4:9(1:1:3C,/D,/^D,/(1:1:3E,/^E,/^F,/(1:1:3A,/^G,/=G,/ | %8
!p!!<(! G,6 _G,>F, | _D6!<)!!mf!!>(! A,2 | F,4- F,E,G,F,!>)! | %11
!p! E, z z2 z2 (9:4:9(1:1:3E,,/^D,,/=D,,/(1:1:3^C,,/=C,,/^A,,,/(1:1:3B,,,/C,,/D,,/ | E,, z z2 z4 | %13
 z4 !^!F, z z2 | !^!^F, z z2 !^!G, z z2 || %15
[K:Eb]!ff! C6 (9:4:9(1:1:3C,/D,/E,/(1:1:3F,/^F,/G,/(1:1:3B,/A,/G,/ | %16
 G,6 (9:4:9(1:1:3C,/D,/E,/(1:1:3F,/^F,/!mf!G,/(1:1:3B,/A,/G,/ | %17
 G, z z3/2!mp! [C,E,]/ .[C,E,] z (9:4:9(1:1:3C,/D,/E,/(1:1:3F,/^F,/!p!G,/(1:1:3B,/A,/G,/ | %18
!p! [C,E,G,C]6 [D,G,]>[D,G,] | [E,C]>[G,D] [CE]3[K:treble] [G,D] [EG]2- | %20
 [EG]2 [D^F]>!mf![EG] [B,GB]3!mf! [C=Ec] | %21
 [B,C=EGB]4 [A,CFA]2!<(! (9:4:10(1:1:3F,/G,/A,/(1:1:3B,/=B,/C/(1:2:4D/4=E/4F/4G/4!<)! | %22
!ff! [FA]6 (9:4:9(1:1:3F,/G,/A,/(1:1:3B,/=B,/C/(1:1:3E/_D/C/ | %23
 [CF]6 (9:4:9(1:1:3F,/G,/A,/(1:1:3B,/=B,/!p!C/(1:1:3E/_D/C/ | %24
 [A,C]/[A,C]/ z z3/2 [A,C]/ [A,C] z (9:4:9(1:1:3F,/G,/A,/(1:1:3B,/=B,/C/(1:1:3_D/C/A,/ | %25
!p![Q:1/4=60] !arpeggio![_D_d]6!p! [A,A]>!p![B,B] |!p! [Cc]4- [Cc]!p! [Cc]2!p! [Cc] | %27
!p! !>![_E_e]4!p! [Dd]4 |!p! [Cc]4- [Cc]2 [=B,=B]2 |!p! c8 | z2 z =E- GB _d>c | %31
!p! z!<(! GB=d g3 f | f2!<)!!f! =e>!>(!B- G_E_DB, | d"^dim."=de>B!>)!!p! _d2 c2 | c2 ^c2 d3 =A | %35
 =c2 B3 G,- (9:4:9(1:1:3G,/=A,/B,/(1:1:3C/^C/D/(1:1:3F/E/D/ | %36
[K:bass] x4 (3D/=A,/B,/(3C/^C/D/ (3F/E/D/(3C/D/G/ | %37
[K:treble] B4- (3B/"^cresc."=A,/B,/(3=B,/C/_D/ (3=D/!mp!E/_G/(3F/D/E/ | %38
 =B4- (3B/^A,/=B,/(3^^C/^D/^E/ (3^F/A,/B,/(3D/F/B/ | %39
 ^G,4-!mp!!<(! (3G,/=B,/D/(3=E/F/B,/ (3D/E/F/(3=A/^G/A/ || %40
[K:C]"^più cresc." B4- B _B,- B,/8C/8D/8E/8F/8G/8A/8B/8c/8d/8e/8f/8g/8^g/8a/8b/8!<)! | %41
!f! [e=gc']4 C3 E | G>c !^!e4!<(! !^!c2!<)! |!ff! !^!g!f! z z2 z4[K:bass] | %44
[K:treble]!ff! !^![Gceg]/!^![Gceg]/ z !~(!C2!8va(! !^!!~)![g'c''e''g''] z!8va)! !^![fac']/ x/ x | %45
!ff! !^![Gceg]/!^![Gceg]/ z !~(!C2!8va(! !^!!~)![g'c''e''g''] z!8va)! !^![fac']/ x/ x | %46
 !^![Gceg]/!^![Gceg]/ z/ !^![DGBd]/ !^![Gceg]/!^![Gceg]/ z/!f! [G,B,D]/!mf! [G,CEG]/!mp![G,CEG]/ z/ [G,B,D]/ [G,CEG]/[G,CEG]/[K:bass] (3z/ z/ .G,/ | %47
!mp! C7/2!mp! C/!mp! [_E,_E]7/2 z/ | %48
[K:treble]!f! [_A,_A]4[K:bass]!mp! [C,C]2!mp! [_B,,_B,]>!mp![_A,,_A,] | %49
 [_E,_E]3 (3:2:2x!mf! [E,E]/ [F,F]3 (3x!f! [E,E]/4[F,F]/4 | %50
[K:treble]!ff! !^![GBdg]/!^![GBdg]/ z !~(!G,2!8va(! !^!!~)![g'b'd''g'']!8va)! z !^!c'/4 x/4 x/ x | %51
 !^![GBdg]/!^![GBdg]/ z !~(!G,2!8va(! !^!!~)![g'b'd''g'']!8va)! z !^!c'/4 x/4 x/ x | %52
 !^![GBdg]/!^![GBdg]/ z/!f! !^![GBd]/!mf! !^![GBdg]/!^![GBdg]/ z/ !^![G,B,D]/ !^![G,B,G]/!^![G,B,G]/ z/ !^![G,B,D]/ !^![G,B,DG]/!^![G,B,DG]/ z/ !^!D/ || %53
[K:Eb]!p! !^!G7/2!mp! G/ !^!B7/2!mf! =A/4G/4 |!f! [EGe]4!p! F2!mp! G>_A | %55
!mf! B3!f! G A3- (3A/G/F/ | %56
!ff! [G,B,E]<!^![EGB]- [EGB]>!^![B,EG] !^![G,B,E]2- (3[G,B,E]!^![F,B,DF]!^![G,B,EG] | %57
 !^![A,CEA]/!^![G,B,EG]/ [F,CEF]2 [A,B,DFB]- [A,B,DFB]4 | %58
 !^![ABdfb]/!^![ABdfb]/ z z z/ [FBdf]/ !^![Adfb]3 z | %59
 !^![ABdfb]/!^![ABdfb]/ z z z/ [FBdf]/ !^![Adfb]3 z | %60
 [gbe'g']/ z/ !^![EGB]3- [EGB]/!wedge![B,EG]/!^![G,B,E] !^![F,B,DF]!^![G,B,EG] | %61
 !wedge![A,CEA]/!wedge![G,B,EG]/!^![F,CEF] (3!wedge![B,EB]/!wedge![B,DA]/!wedge![B,EG]/(3!wedge![B,DA]/!wedge![B,EG]/!wedge![B,F]/ !^![F,=A,EF]4 | %62
 (3!^![F=Aef]/!^![FAef]/ z/ x!f! (8:6:8F/8G/8=A/8B/8c/8d/8e/8f/8(8:6:8g/8!ff!=a/8b/8c'/8d'/8e'/8=e'/8f'/8!fff!(3=a'/4g'/4f'/4!fff! (3!wedge![fa_e'f']/!wedge![fae'f']/ z/ x x3/4 (8:6:8G/8=A/8B/8c/8d/8e/8=e/8f/8(3=a/4g/4f/4 | %63
 (3[F=Aef]/[FAef]/ z/ z!mp! E4 DE- |!p! _G2- (6:4:5GF/G/_A/G/ e3 B | _d2 E4-!pp! EF |!pp! _G8- | %67
 G2 _G4!p! G2 |!mp!!<(! _G2- (6:4:5GF/^F/=G/F/!<)!!f! e3 =A | _d2 E4- E!p!F |[K:bass]!pp! G6 F2 | %71
 _A, z _G4 F2 |!p! =A,4- A, C2- C/C/ |[K:treble] [c=e] [=Ac]2 [=Bd] [ce]4[K:bass] | %74
[Q:1/4=54]"_un po'ritenuto" z G2 E C2!<(! [CD]!mp![CE]!<)! |!>(! (3.F.E.D D4 G2!>)! | %76
!p! C4- C z (9:4:9(1:1:3C,/D,/E,/(1:1:3F,/^F,/G,/(1:1:3_B,/A,/G,/ | [G,,C,E,G,]8 | %78
!pp! [C,E,C]4 [C,E,C] z (9:4:9(1:1:3C,/D,/E,/(1:1:3F,/^F,/G,/(1:1:3B,/A,/G,/ | [G,,G,]6 [E,,E,]2 | %80
 [C,,E,,G,,C,]4!pp! [C,,E,,G,,C,]4 |!pp! [C,,G,,C,]8 |] %82
V:2
!pp! [^C,,,^C,,]/[C,,,C,,]/ z z3/2 [C,,,C,,]/ .[C,,,C,,] z z2 | %1
 z2 (9:4:9(1:1:3[^C,,,^C,,]/[C,,,C,,]/[C,,,C,,]/!ped!(1:1:3[C,,,C,,]/[C,,,C,,]/[C,,,C,,]/(1:1:3[C,,,C,,]/[C,,,C,,]/[C,,,C,,]/ .[C,,,C,,]!ped-up! z z2 | %2
 z2 .[^C,,,^C,,] z z2 (9:4:9(1:1:3C,,/D,,/^D,,/(1:1:3E,,/^E,,/^F,,/(1:1:3A,,/^G,,/=G,,/ | %3
 G,,6 ^F,,>G,, |!mf!!ped!!>(! E,6!ped-up! C,2 |!ped! _A,,4- A,,!ped-up!G,,_B,,A,,!>)! | %6
!p!!ped! [G,,G,]8-!ped-up! | %7
 [G,,G,]2 z2 z2 (9:4:9(1:1:3^C,,/D,,/^D,,/(1:1:3E,,/^E,,/^F,,/(1:1:3A,,/^G,,/=G,,/ | %8
 G,,6 _G,,>F,, |!mf!!ped! _D,6!ped-up! A,,2 |!ped! F,,4- F,,!ped-up!E,,G,,F,, | %11
 E,, z z3/2!pp! [E,,,E,,]/ [E,,,E,,] z!ppp!!8vb(! (9:4:9(1:1:3E,,,/^D,,,/=D,,,/(1:1:3^C,,,/=C,,,/^A,,,,/(1:1:3B,,,,/C,,,/D,,,/ | %12
 E,,,!8vb)! z z2!pp! .[E,,,E,,] z z2 | .[E,,,E,,] z z2!p!!<(! !^![F,,,F,,]"^cresc." z z2 | %14
 !^![^F,,,^F,,] z z2 !^![G,,,G,,] z z2 || %15
[K:Eb]!ped! [C,,,C,,]/!<)![C,,,C,,]/!ped-up! z z3/2!ped! [C,,,C,,]/ [C,,,C,,]!ped-up! z (9:4:9(1:1:3C,,/D,,/E,,/(1:1:3F,,/^F,,/G,,/(1:1:3B,,/A,,/G,,/ | %16
!ped! [C,,G,,]/[C,,G,,]/!ped-up!"^dim." z z3/2!ped! [C,,G,,]/ [C,,G,,]!ped-up! z (9:4:9(1:1:3C,,/D,,/E,,/(1:1:3F,,/^F,,/G,,/(1:1:3B,,/A,,/G,,/ | %17
 G,,6 (9:4:9(1:1:3C,,/D,,/E,,/(1:1:3F,,/^F,,/G,,/(1:1:3B,,/A,,/G,,/ | %18
 C,,6!ped! [G,,=B,,]>[G,,B,,]!ped-up! | %19
 [C,,G,,C,]>[G,,D,]"^cresc." [C,E,]3!ped!!mp! [G,,D,] [E,G,]2-!ped-up!!ped! | %20
 [E,G,]2!ped-up! [D,^F,]>[E,G,] G,3!ped!!ped-up!!ped!!ped-up!!ped! x!ped-up! | %21
!f!!ped! !///-!F,,2 =E,,,2!ped-up!!ped! (6:4:6F,,/4E,,,/4F,,/4E,,,/4F,,/4E,,,/4(6:4:6F,,/4E,,,/4F,,/4E,,,/4F,,/4E,,,/4!ped-up! (9:4:10(1:1:3F,,/G,,/A,,/(1:1:3B,,/=B,,/C,/(1:2:4D,/4=E,/4F,/4G,/4 | %22
!ped! !wedge![F,,C,F,]/!wedge![F,,C,F,]/!ped-up! z z3/2!ped! !wedge![F,,C,F,]/ !wedge![F,,C,F,]!ped-up! z (9:4:9(1:1:3F,,/G,,/A,,/(1:1:3B,,/=B,,/C,/(1:1:3E,/_D,/C,/ | %23
"^dim."!ped! !^!F,/!^!F,/!ped-up! z z3/2!ped! !^!F,/ !^!F,!ped-up! z!mp! (9:4:9(1:1:3F,,/G,,/A,,/(1:1:3B,,/=B,,/C,/(1:1:3E,/_D,/C,/ | %24
!p! C,6 (9:4:9(1:1:3F,,/G,,/A,,/(1:1:3B,,/=B,,/C,/(1:1:3_D,/C,/A,,/ | %25
!ped! A,/4B,/4A,/4B,/4A,/4B,/4A,/4B,/4A,/4B,/4A,/4B,/4A,/4B,/4A,/4G,/4 F,/4G,/4F,/4G,/4F,/4G,/4F,/4G,/4 F,/4G,/4F,/4G,/4F,/4A,/4G,/4F,/4!ped-up! | %26
!ped! E,/4F,/4E,/4F,/4E,/4F,/4E,/4F,/4 E,/4F,/4E,/4F,/4E,/4F,/4E,/4D,/4 C,/4_D,/4C,/4D,/4C,/4D,/4C,/4D,/4 C,/4D,/4C,/4D,/4C,/4D,/4C,/4A,,/4!ped-up! | %27
!ped! C/4E/4C/4E/4C/4E/4C/4E/4C/4E/4C/4E/4C/4E/4C/4E/4!ped-up!!ped! C/4!pp!=B,/4C/4B,/4C/4B,/4C/4B,/4C/4B,/4C/4B,/4C/4B,/4C/4D/4!ped-up! | %28
!ped! E/4!pp!D/4E/4D/4E/4D/4E/4F/4 G z/!ped-up!!p! [G,,,G,,]/ .[G,,,G,,] z (9:4:9(1:1:3D,,/E,,/=E,,/(1:1:3F,,/^F,,/G,,/(1:1:3_B,,/A,,/G,,/ | %29
 [C,,C,]4- [C,,C,] [=B,,,=B,,]2!ped! [C,,C,]!ped-up! | %30
!ped! [_B,,_B,]6!ped-up!!ped! [G,,G,]2!ped-up! | %31
!ped! z G,!ped-up!!ped![I:staff -1]B,=D!ped-up!!ped![I:staff +1] =E2!ped-up!!ped! F2!ped-up! | %32
!ped! [_D,,_D,]4!ped-up!!ped!!ped-up!!ped! [B,,,B,,]2!ped-up!!ped! [_A,,,_A,,]>!ped-up![G,,,G,,] | %33
!ped! _E4!ped-up!!ped! z/ A,,/C,/E,/ A,/[I:staff -1]C/-!ped-up!!ped!E/-A/-!ped-up! | %34
!ped![I:staff +1] z2 z z/!ped-up!!ped! (3D,,/4-D,/4=A,/4 x4!ped-up! | %35
!pp!!ped! .[G,,D,G,] .[G,,D,G,]2 .[G,,D,G,]!ped-up!!ped! [G,,D,B,]2-!ped-up! [G,,D,B,]2 | %36
!ped!!p! G,, G,,2 G,,!ped-up!!ped! G,,2!ped-up!!ped! x2!ped-up! | %37
!ped! z [E,G,B,]2 [E,G,B,]!ped-up!!ped! [E,_G,B,]3!ped-up!!ped!!ped-up! z | %38
!ped! z [^D,^F,=B,]2 [D,F,B,]!ped-up!!ped! [D,F,B,]3!ped-up!!ped!!ped-up! z | %39
!ped! z[K:treble] [DF=B]2 [DFA]!ped-up!!ped! [DFB]3!ped-up![K:bass]!ped!!ped-up! z || %40
[K:C]!ped! z [D,F,]2 [D,F,]!ped-up!!ped! x2!ped-up!!ped! x !^!G!ped-up! | %41
!ped! z [E,G,CE]2 [E,G,CE]2[K:treble] [EGce]2 [Gce]!ped-up! | %42
[K:bass]!ped! z [E,G,CE]2 [E,G,C]2 [E,G,C]2!ped-up!!ped! [E,^F,A,CE]!ped-up! | %43
 z [=F,G,B,E]2 [F,G,B,E]2!ped! x!f!!<)!!<(!!ped! (9:4:9(1:1:3[G,,,G,,]/[I:staff -1][A,,A,]/[I:staff +1][G,,,G,,]/[I:staff -1](1:1:3[^F,,^F,]/[I:staff +1][G,,,G,,]/[I:staff -1][^G,,^G,]/[I:staff +1](1:1:3[A,,,A,,]/[I:staff -1][^A,,^A,]/[I:staff +1][B,,,B,,]/ | %44
!ped! !^![C,G,CE]/!^![C,G,CE]/!ped-up! z/4!ped! C,,/8B,,,,/8C,,/8B,,,,/8C,,/8B,,,,/8 C,, z/!ff! [G,B,D]/ !^![CEG]!ped-up! z!ped! (6:4:6C/4D/4C/4D/4C/4D/4(6:4:6C/4D/4C/4B,/4C/4D/4!ped-up! | %45
!ped! !^![C,G,CE]/!^![C,G,CE]/ z/4!ped-up!!ped! C,,/8B,,,,/8C,,/8B,,,,/8C,,/8B,,,,/8 C,, z/!ff! [G,B,D]/ !^![CEG]!ped-up! z!ped! (6:4:6C/4D/4C/4D/4C/4D/4(6:4:6C/4D/4C/4B,/4C/4D/4!ped-up! | %46
 !^![C,G,CE]/!^![C,G,CE]/ z/ !^![G,,D,B,]/ !^![C,G,CE]/!^![C,G,CE]/ z/ G,,/ C,/C,/ z/!p! [G,,,G,,]/ [C,,C,]/[C,,C,]/ (3z/ z/ .B,,,/ | %47
!mp!!ped! (3.[C,,,C,,]/.[C,,,C,,]/ z/!ped-up!!ped! (3.[G,,,G,,]/.[A,,,A,,]/.[B,,,B,,]/!ped-up!!ped! [C,,E,,G,,C,]/ z/ z/!ped-up!!ped! z/!ped-up!!ped! z!mf! G,,/4=F,,/4_E,,/4D,,/4!ped-up!!ped! [C,,E,,G,,C,] z/!ped-up! z/ | %48
!ped! z!f! (3[_E,,_E,]/[F,,F,]/[G,,G,]/!ped-up!!ped! [_A,,C,E,_A,] z!ped-up!!ped! z!p! C,,/4_B,,,/4_A,,,/4G,,,/4!ped!!ped-up! [F,,,C,,F,,] z!ped-up! | %49
!ped! z!mp! C,,/4D,,/4_E,,/4F,,/4!ped!!ped-up! [G,,,B,,,D,,G,,] z!ped! z C,,/4E,,/4!mf!F,,/4G,,/4!ped!!ped-up! [_A,,,C,,D,,_A,,] z | %50
!ped! !^![G,B,D]/!^![G,B,D]/!ped-up! z/4!ped! G,,/8^F,,,/8G,,/8F,,,/8G,,/8F,,,/8 G,, z/!ff! [D,G,B,D]/ !^![G,B,DG]!ped-up! z!ped! (6:4:6G,/4A,/4G,/4A,/4G,/4A,/4(6:4:6G,/4A,/4G,/4^F,/4G,/4A,/4!ped-up! | %51
!ped! !^![G,,D,B,]/!^![G,,D,B,]/!ped-up! z/4!ped! G,,/8^F,,,/8G,,/8F,,,/8G,,/8F,,,/8 G,, z/!ff! [D,G,B,D]/ !^![G,B,DG]!ped-up! z!ped! (6:4:6G,/4A,/4G,/4A,/4G,/4A,/4(6:4:6G,/4A,/4G,/4^F,/4G,/4A,/4!ped-up! | %52
!ped! !^![G,B,D]/!^![G,B,D]/!ped-up! z/ !^![D,G,B,D]/"^dim."!ped! !^![G,,D,G,]/!^![G,,D,G,]/!ped-up! z/!ped! !^!D,/!mp! !^![G,,D,]/!^![G,,D,]/!ped-up! z/!p! !^!D,,/!ped! !^![G,,,G,,]/!^![G,,,G,,]/!ped-up! z || %53
[K:Eb]!ped!!p! (7:4:7z/4!pp! B,/4E/4D/4B,/4G,/4D,/4 (5:4:5G,,/4=A,,/4B,,/4E,/4D,/4 (5:4:5G,,,/4=A,,,/4B,,,/4E,,/4D,,/4 .G,,,!mp! (7:4:7z/4!ped-up!!ped!!p! B,/4F/4E/4B,/4G,/4E,/4 (5:4:5G,,/4B,,/4D,/4F,/4E,/4 (5:4:5E,,/4!mp!F,,/4G,,/4C,/4B,,/4 .E,,,!ped-up! | %54
!f!!ped! (7:4:7z/4!mp! C/4F/4E/4C/4G,/4E,/4 (5:4:5G,,/4C,/4!p!E,/4A,/4G,/4 (5:4:5C,,/4D,,/4!pp!E,,/4A,,/4G,,/4 .C,,,!ped-up!!p!!ped! (7:4:7z/4!pp! C/4F/4E/4C/4F,/4E,/4 (5:4:5A,,/4C,/4E,/4=E,/4F,/4!ped! (6:4:6F,,/4!ped-up!G,,/4!p!A,,/4B,,/4=B,,/4C,/4 .A,,, | %55
!ped! (6:4:6z/4!mp! B,/4F/4E/4B,/4G,/4 (5:4:5_B,,/4E,/4G,/4C/4B,/4 (5:4:5E,,/4F,,/4G,,/4C,/4B,,/4 .E,,,!ped-up!!ped! (7:4:7z/4!mp! B,/4G/4F/4D/4B,/4F,/4 (5:4:5A,,/4C,/4D,/4G,/4F,/4!ped! (6:4:6B,,,/4!ped-up!C,,/4!mf!D,,/4E,,/4=E,,/4F,,/4 .B,,,,!ped-up! | %56
 z z/ (3E,/4D,/4_D,/4 (3C,/4_C,/4A,,/4(3B,,/4=C,/4=D,/4E,/ z/ z4 | %57
 z4!ped! (8:6:7[D,,B,,]/[E,,C,]/4[F,,D,]/4[G,,E,]/4[A,,F,]/4[B,,G,]/4[C,A,]/4 (8:6:8D,/4E,/4F,/4G,/4A,/4B,/4C/4D/4(3F/E/D/ | %58
!ped! [F,B,DF]/[F,B,DF]/!ped-up! z/ (3z/4!ped! F,,/4_G,,/4 (6:4:6=G,,/4A,,/4=A,,/4D,/4C,/4B,,/4 B,,/ [B,D]/ !^![F,B,DF]3!ped-up!!ped![K:treble] z!ped-up! | %59
[K:bass]!ped! [F,B,DF]/[F,B,DF]/!ped-up! z/ (3z/4!ped! F,,/4_G,,/4 (6:4:6=G,,/4A,,/4=A,,/4D,/4C,/4B,,/4 B,,/ [B,D]/ !^![F,B,DF]3!ped-up!!ped![K:treble] z!ped-up! | %60
[K:bass]!ped! z z/ (3E,/4D,/4_D,/4(3C,/4_C,/4_B,,/4(3G,,/4A,,/4=A,,/4(3B,,/4C,/4=C,/4(3D,/4=D,/4E,/4 z4!ped-up! | %61
 z4!ped!!ped-up!!ped! C,,/4!f!!<(!F,,/4=A,,/4E,/4F,/4=A,/4C/4E/4[K:treble][I:staff -1] F/4=A/4c/4=e/4f/4=a/4g/4f/4!ped-up!!<)! | %62
[I:staff +1][K:bass]!fff!!ped! z !^![C,,E,,=A,,C,]/ z/ x x!ped-up!!ped! z2 (8:6:8F,/8G,/8=A,/8x/8C/8D/8E/8F/8 x3/4 z/!ped-up! | %63
!ped!!mp! x [C,,F,,]/ z/!ped-up!!p!!ped! C,/8D,/8E,/8F,/8G,/8=A,/8B,/8C/8D/8E/8=E/8F/8(3=A/4G/4F/4 F z!ped-up!!ped! z2 | %64
!pp!!ped! [C,,C,]4!ped-up!!ped! [B,,,B,,_G,B,]4!ped-up! | %65
!ped! [A,,,A,,]6[K:treble]!ped-up!!ped! x2!ped-up! | %66
[K:bass] [=A,,,,=A,,,]/[A,,,,A,,,]/ z z z/ [A,,,,A,,,]/ [A,,,,A,,,] z (9:4:9(1:1:3E,,/F,,/_G,,/(1:1:3=G,,/A,,/=A,,/(1:1:3C,/B,,/A,,/ | %67
 =A,, z (9:4:9(1:1:3C,/D,/E,/(1:1:3F,/_G,/_A,/(1:1:3=A,/_A,/G,/ G, z (9:4:9(1:1:3A,,/B,,/=B,,/(1:1:3C,/D,/!mp!E,/(1:1:3G,/F,/E,/ | %68
"^cresc."!ped! x4!ped-up!!ped! !arpeggio![C,E,=A,]4!ped-up! | %69
!ped! (3F,,/C,/!mf!E,/(3=A,/!mp!C/E/!ped-up![K:treble]!p!!ped! (3=A/c/e/(3=a/c'/e'/ =a' z!ped-up! z2 | %70
[K:bass]!ped! F,,8!ped-up! | %71
!ped! z2 [=D,=B,]4!ped-up! (9:4:9(1:1:3C,/^C,/D,/(1:1:3E,/=E,/F,/[I:staff -1](1:1:3_G,/F,/=E,/ | %72
!ped![I:staff +1] !///-!^F,,2 ^E,,2!ped-up!!ped! !///-!F,,2 E,,2!ped-up! | %73
!ped! !///-!^F,,2 ^E,,2 !///-!F,,!ped-up!!ped! E,, (6:4:6F,,/4E,,/4F,,/4E,,/4F,,/4E,,/4 F,,/ z/!ped-up! | %74
!ped! x6!ped-up! ._A,.G, | (3.F,.G,.A,-!ped! A,4 x2!ped-up! | %76
 [G,,C,]4- [G,,C,] z (9:4:9(1:1:3C,,/D,,/E,,/(1:1:3F,,/^F,,/G,,/(1:1:3B,,/A,,/G,,/ | %77
 C,,8!ped!!ped-up! | G,,4 G,, z (9:4:9(1:1:3C,,/D,,/E,,/(1:1:3F,,/^F,,/G,,/(1:1:3B,,/A,,/G,,/ | %79
 C,,8!ped!!ped-up! |!ped! C,,,2 z2!ped-up!!ped! C,,,2 z2!ped-up! | %81
!ppp!!ped! !///-!C,,,2 =B,,,,2 C,,,2 z2!ped-up! |] %82
V:3
 x8 | x8 | x511/64 | G,,, z z2 z4 | x8 | x8 | x8 | x511/64 | G,,, z z2 z4 | x8 | x8 | %11
 x6!8vb(! x127/64 | x!8vb)! x7 | x8 | x8 ||[K:Eb] x8 | x8 | C,,/C,,/ z z3/2 C,,/ .C,, z x2 | %18
 C,,,/C,,,/ z z3/2 C,,,/ .C,,, z x2 | %19
 x2 z3/2 (3[C,,,C,,]/4[C,,,C,,]/4[C,,,C,,]/4 [C,,,C,,] z z3/2 (3[C,,,C,,]/4[C,,,C,,]/4[C,,,C,,]/4 | %20
 [C,,,C,,] z z2 z (6:4:6C,,/4=B,,,/4C,,/4B,,,/4C,,/4B,,,/4 (6:4:6C,,/4B,,,/4C,,/4B,,,/4C,,/4B,,,/4(6:4:6C,,/4B,,,/4C,,/4B,,,/4C,,/4B,,,/4 | %21
 !^!C,,4 x4 | x8 | !^![F,,C,]/!^![F,,C,]/ z z3/2 !^![F,,C,]/ !^![F,,C,] z x2 | %24
 [F,,F,]/[F,,F,]/ z z3/2 [F,,F,]/ [F,,F,] z x2 | !arpeggio![_D,,_D,]8 | A,,4 G,,4 | %27
 !arpeggio!!>!!^![F,,F,]6 z2 | G,2 G, x x4 | x8 | x8 | [=E,,=E,]6 [=D,,=D,]2 | x8 | %33
 [G,,,G,,]4 !arpeggio![A,,,A,,]3 [G,,,G,,] | [^F,,,^F,,]4 D,,2 x2 | x8 | %36
 [G,,,G,,]4- [G,,,G,,] [^F,,,^F,,]2 [G,,,G,,] | [E,,E,]6 [_C,,_C,]2 | %38
 [_A,,,_A,,]4- [A,,,A,,] [G,,,G,,]2 [A,,,A,,] | %39
 !>![F,,F,]4[K:treble] [Dd][K:bass]"^cresc."[D,,D,] [=B,,,=B,,]>[=A,,,=A,,] || %40
[K:C] !^![A,,,D,,F,,A,,]4 !^![_A,,,D,,F,,_A,,]2 !^![G,,,D,,F,,G,,]2 | [C,,E,,G,,C,]4 x4[K:treble] | %42
[K:bass] [C,,C,]4 [B,,,B,,]2 [A,,,A,,]2 | [G,,,G,,]4- (3:2:1[G,,,G,,] !///-!G,,,2/3 A,,2/3 x2 | %44
 x4 z2 !^![F,A] z | x4 z2 !^![F,A] z | x8 | x8 | x8 | x8 | x4 z2 !^![C,E]/ z/ z | %51
 x4 z2 !^![C,E]/ z/ z | x8 ||[K:Eb] [G,,D,]4 [E,G,]4 | [C,G,C]4 [A,,E,F,]4 | [_E,G,]4 [B,,F,A,]4 | %56
 [E,,B,,E,]4 [E,,B,,E,]/[D,,D,]/[C,,C,] (3[B,,,B,,][A,,,A,,][G,,,G,,] | %57
 !^![F,,,F,,]/!^![G,,,G,,]/ [A,,,A,,]2 [F,,,B,,,D,,F,,]- [F,,,B,,,D,,F,,]4 | %58
 x x/ (3x/4 F,,,/4_G,,,/4 (6:4:6=G,,,/4A,,,/4=A,,,/4D,,/4C,,/4B,,,/4 B,,,/ z/ z (6:4:6B,,/4C,/4D,/4E,/4F,/4G,/4(6:4:6_A,/4B,/4C/4D/4E/4F/4[K:treble](3G/4A/4B/4(3d/4c/4B/4 | %59
[K:bass] x x/ (3x/4 F,,,/4_G,,,/4 (6:4:6=G,,,/4A,,,/4=A,,,/4D,,/4C,,/4B,,,/4 B,,,/ z/ z (6:4:6B,,/4C,/4D,/4E,/4F,/4G,/4(6:4:6_A,/4B,/4C/4D/4E/4F/4[K:treble](3G/4A/4B/4c/8d/8 z/4 | %60
[K:bass] [E,,B,,E,]4 [D,,D,]>[C,,C,] (3!^![B,,,B,,]!^![_A,,,_A,,]!^![G,,,G,,] | %61
 !wedge![F,,,F,,]/!wedge![G,,,G,,]/!^![A,,,A,,] (3!wedge![G,,E,]/!wedge![F,,F,]/!wedge![E,,G,]/(3!wedge![F,,F,]/!wedge![E,,E,]/!wedge![D,,D,]/ !^![C,,F,,C,]4[K:treble] | %62
[K:bass] (3!^![C,F,=A,E]/!^![C,F,A,E]/ z/ x z z/ [C,F,A,C]/ (3!wedge![F,A,EF]/!wedge![F,A,EF]/ z/!ff!!>(! !^![C,,E,,=A,,C,]/ z/ x x/ [F,A,C]/!>)! | %63
 (3[C,F,=A,C]/[C,F,A,C]/ z/ x/ z x/ x/ [F,A,C]/ [C,E,A,] C,,/ z/{/C,,} (9:4:10(1:1:3=A,,/_B,,/C,/(1:2:4D,/4E,/4=E,/4F,/4(1:1:3A,/G,/F,/ | %64
 x8 | (3[A,,,A,,]E,_G, (3B,[K:treble]E_G Be _g z |[K:bass] x8 | =A,,,4 [A,,,=A,,]4 | %68
 [=G,,,=G,,]4 !arpeggio![_G,,,_G,,]4 | [F,,,F,,]6[K:treble] x2 | %70
[K:bass] F,,,/F,,,/ z z3/2 F,,,/ F,,, z (9:4:9(1:1:3C,/D,/E,/(1:1:3F,/^F,/G,/[I:staff -1](1:1:3_B,/=A,/_A,/ | %71
[I:staff +1] F,,8 | ^F,,,8 | ^F,,,8 | [G,,,_E,,]6 G,,2- | G,,4{/D,,D,,} [G,,,G,,] z z2 | %76
 .C,,/.C,,/ z z3/2 .C,,/ .C,, z x2 | C,,,/C,,,/ z z3/2 C,,,/ C,,, z C,,, z | %78
 C,,/C,,/ z z3/2 C,,/ C,, z x2 | .C,,,/.C,,,/ z z3/2 .C,,,/ .C,,, z z2 | x8 | x8 |] %82
V:4
 x8 | x8 | x4[K:bass] x255/64 | x8 | x8 | x8 | x8 | x511/64 | x8 | x8 | x8 | x511/64 | x8 | x8 | %14
 x8 ||[K:Eb] [E,G,]<[E,G,]- [E,G,]>[E,G,] [E,G,] x x2 | E,<E,- E,>!f!E, E, x x2 | %17
 [C,E,]/[C,E,]/ x x2 x2 x2 | x8 | x5[K:treble] x3 | x4 x2!mp! [=E,C=E]2 | x8 | %22
 C<C- C>!wedge!C !wedge!C z x2 | A,<!f!A,- A,>A,!mf! A, z x2 | x8 | %25
 F/4!pp!_D/4F,/4D/4F,/4D/4F,/4D/4F,/4D/4F,/4D/4F,/4D/4F,/4D/4 A,/4D/4A,/4D/4A,/4D/4A,/4D/4 A,/4!pp!D/4A,/4D/4(3A,/D/B,/ | %26
 z/4!pp! A/4E/4A/4E/4A/4E/4A/4E/4A/4E/4A/4E/4A/4E/4A/4 =E/4B/4E/4B/4E/4!pp!B/4E/4B/4E/4B/4E/4B/4E/4!pp!B/4E/4B/4 | %27
 A/4!pp!G/4A/4G/4A/4G/4A/4G/4A/4G/4A/4G/4A/4G/4A/4G/4 A4 | x4 [DF]4 | C2 z C =EG _B>A | G4 E4 | %31
 _D2[I:staff +1] =D2[I:staff -1] G3 F | F2 =E6 | [_DB]4 !arpeggio![CEA]4 | [CA]4 [=C^F=A]4 | x8 | %36
[K:bass] [D,G,B,] [D,G,B,]2 [D,G,B,] [D,G,B,]2- [D,G,B,] z |[K:treble] [G,E] E2 E E2 x2 | %38
 [=B,^D^F] [DF]2 [DF] [DF]3 z | z [=F,=B,]2 [F,B,] [F,B,]3 z || %40
[K:C] [B,DF] [B,DF]2 [_B,DF] [F,B,DF] x x2 | c4 x4 | %42
 z2 z [EGc]2 [EG] (3:2:2C/D/4(3E/4^F/4G/4(3A/4B/4c/4(3d/4e/4^f/4 | %43
 [=FGBe] [FGBe]2 [FGBe]2 [DFGBd]3[K:bass] | %44
[K:treble] x6 (6:4:6c/4d/4e/4f/4g/4a/4(6:4:6b/4c'/4d'/4c'/4b/4a/4 | %45
 x6 (6:4:6c/4d/4e/4f/4g/4a/4(6:4:6b/4c'/4d'/4c'/4b/4a/4 | x7[K:bass] x | %47
 (3:2:6C/4!pp!G,/4E,/4G,/4^D,/4G,/4(3:2:6E,/4G,/4D,/4G,/4E,/4G,/4 (3:2:6E,/4G,/4D,/4G,/4E,/4G,/4(3:2:6E,/4G,/4D,/4G,/4!pp!E,/4G,/4 (3:2:6_E,/4!pp!C/4^F,/4C/4G,/4C/4(3:2:6F,/4C/4G,/4C/4F,/4C/4!p! (3:2:6G,/4C/4F,/4C/4G,/4C/4(5:4:5F,/4C/4G,/4!mf! .[=D,=D]/4.[C,C]/4 | %48
[K:treble] (3:2:6z/4!p! _E/4C/4E/4B,/4E/4(3:2:6C/4E/4B,/4E/4C/4E/4!>(! (3:2:6B,/4E/4C/4E/4B,/4E/4(3:2:6C/4E/4B,/4E/4C/4!>)!!pp!E/4[K:bass] (3:2:6z/4!pp! _A,/4F,/4A,/4=E,/4A,/4(3:2:6F,/4A,/4E,/4A,/4F,/4A,/4 (3:2:6z/4!pp! F,/4C,/4_D,/4=D,/4_E,/4(3:2:5=E,/4F,/4_G,/4=G,/4 z/ | %49
 (3:2:6z/4!pp! C/4G,/4C/4^F,/4C/4(3:2:6G,/4C/4F,/4C/4G,/4C/4!p! (3:2:6F,/4G,/4C/4=B,/4_B,/4A,/4(3:2:5_A,/4G,/4F,/4=F,/4_E,/ (3:2:6z/4!p! D/4C/4D/4_A,/4D/4(3:2:6C/4D/4A,/4D/4C/4D/4!mp!!<(! (3:2:6A,/4D/4C/4A,/4[I:staff +1]F,/4G,/4[I:staff -1](3:2:6A,/4B,/4C/4D/4!<)!E,/4F,/4 | %50
[K:treble] x4!8va(! x2!8va)! !^![ceg]/8 C/8E/8G/8c/8d/8e/8f/8^f/8g/8a/8b/8c'/8b/8a/8g/8 | %51
 x4!8va(! x2!8va)! !^![ceg]/8 C/8E/8G/8c/8d/8e/8f/8^f/8g/8a/8b/8c'/8b/8a/8g/8 | x8 || %53
[K:Eb] [G,B,]4 [B,E]4 | x4 C4 | [B,E]4 [B,D]4 | x8 | %57
 x4 x3/2 (8:6:8B,/4C/4D/4E/4F/4G/4A/4B/4(3d/c/B/ | %58
 x x x2 z (6:4:6B,/4C/4D/4E/4F/4G/4(6:4:6_A/4B/4c/4d/4e/4f/4(3g/4a/4b/4(3d'/4c'/4b/4 | %59
 x x x2 z (6:4:6B,/4C/4D/4E/4F/4G/4(6:4:6_A/4B/4c/4d/4e/4f/4(3g/4a/4b/4c'/8d'/8e'/8f'/8 | x8 | x8 | %62
 x121/15 | x8 | [E,=A,E]4 [E_G]4 | B,6 _C2 | [E,=C]8- | [E,C]8 | [E,=A,C]4 !arpeggio![CE]4 | %69
 [=A,E]4 x2 x2 |[K:bass] z2 [D,_A,=B,]4 [=A,E]2 | x2 A,4 [=A,E]2 | %72
 [C,=E,] [=A,,C,]2 [=B,,D,] [C,E,]2- [C,E,] z |[K:treble] =E4- E[K:bass] =E,2- E,/C,/ | %74
 G,4 G,2 x2 | (3.A,.G,.F, F,4 G,F, | [E,G,]4- [E,G,] x x2 | x8 | x8 | x8 | x8 | x8 |] %82
V:5
 x8 | x8 | x4[K:bass] x255/64 | x8 | x8 | x8 | x8 | x511/64 | x8 | x8 | x8 | x511/64 | x8 | x8 | %14
 x8 ||[K:Eb] C,/C,/ z z3/2 C,/ C, z x2 | C,/C,/ z z3/2 C,/ C, z x2 | x8 | x8 | x5[K:treble] x3 | %20
 x8 | x8 | A,/A,/ z z3/2 !wedge!A,/ !wedge!A, x x2 | x8 | x8 | x8 | x8 | x8 | x8 | x8 | _D6 B,C | %31
 B6 B2 | [GB]4 [B_d-]4 | x8 | x8 | x8 |[K:bass] x8 |[K:treble] x8 | x8 | x8 ||[K:C] x8 | x8 | x8 | %43
 x2 x2 x2[K:bass] (3x/ x/ x/ x |[K:treble] x4!8va(! x2!8va)! x2 | x4!8va(! x2!8va)! x2 | %46
 x7[K:bass] x | x8 |[K:treble] x4[K:bass] x4 | x8 |[K:treble] x4!8va(! x!8va)! x3 | %51
 x4!8va(! x!8va)! x3 | x8 ||[K:Eb] x8 | x8 | x8 | x8 | x8 | x8 | x8 | x8 | x8 | x121/15 | x8 | x8 | %65
 [E_G]8 | x4 x2 (9:4:9(1:1:3E,/F,/_G,/(1:1:3=G,/A,/=A,/(1:1:3C/B,/A,/ | =A, x x2 _G,3 _A, | x8 | %69
 x8 |[K:bass] x8 | x8 | x8 |[K:treble] x5[K:bass] x3 | [A,,C,_E,]6 F,G, | C4 =B,4 | x8 | x8 | x8 | %79
 x8 | x8 | x8 |] %82
V:6
 x8 | x8 | x511/64 | x8 | x8 | x8 | x8 | x511/64 | x8 | x8 | x8 | x6!8vb(! x127/64 | x!8vb)! x7 | %13
 x8 | x8 ||[K:Eb] x8 | x8 | x8 | x8 | x8 | x4 x2 C,2 | x8 | x8 | x8 | x8 | x8 | x8 | x8 | x8 | x8 | %30
 x8 | x8 | x8 | x8 |[I:staff -1] E3 =D[I:staff +1] x4 | x8 | x8 | x8 | x8 | %39
 x[K:treble] x4[K:bass] x3 ||[K:C] x8 | x5[K:treble] x3 |[K:bass] x8 | x8 | x8 | x8 | x8 | x8 | %48
 x8 | x8 | x8 | x8 | x8 ||[K:Eb] x8 | x8 | G,,3 z x4 | %56
 x z/ (3E,,/4D,,/4_D,,/4 (3C,,/4_C,,/4A,,,/4(3B,,,/4=C,,/4=D,,/4E,,/ z/ z4 | x8 | x7[K:treble] x | %59
[K:bass] x7[K:treble] x | %60
[K:bass] x z/ (3E,,/4D,,/4_D,,/4(3C,,/4_C,,/4_B,,,/4(3G,,,/4A,,,/4=A,,,/4(3B,,,/4C,,/4=C,,/4(3D,,/4=D,,/4E,,/4 z4 | %61
 x6[K:treble] x2 |[K:bass] x121/15 | x8 | x8 | x8/3[K:treble] x16/3 |[K:bass] x8 | x8 | x8 | %69
 x2[K:treble] x6 |[K:bass] x8 | F,,,/F,,,/ z z3/2 F,,,/ F,,, z z2 | x8 | x8 | x8 | x8 | x8 | x8 | %78
 x8 | x8 | x8 | x8 |] %82
V:7
 x8 | x8 | x4[K:bass] x255/64 | x8 | x8 | x8 | x8 | x511/64 | x8 | x8 | x8 | x511/64 | x8 | x8 | %14
 x8 ||[K:Eb] x8 | x8 | x8 | x8 | x5[K:treble] x3 | x8 | x8 | x8 | x8 | x8 | x8 | x8 | x8 | x8 | %29
 x8 | x8 | x8 | x8 | x8 | x8 | x8 |[K:bass] x8 |[K:treble] x8 | x8 | x8 ||[K:C] x8 | x8 | x8 | %43
 x6[K:bass] x2 |[K:treble] x4!8va(! x2!8va)! x2 | x4!8va(! x2!8va)! x2 | x7[K:bass] x | x8 | %48
[K:treble] x4[K:bass] x4 | x8 |[K:treble] x4!8va(! x!8va)! x3 | x4!8va(! x!8va)! x3 | x8 || %53
[K:Eb] x8 | x8 | x8 | x8 | x8 | x8 | x8 | x8 | x8 | x121/15 | x8 | x8 | x8 | x8 | x8 | x8 | x8 | %70
[K:bass] x8 | x8 | x8 |[K:treble] x5[K:bass] x3 | x [C_E]2 [G,C] E,2 x2 | x8 | x8 | x8 | x8 | x8 | %80
 x8 | x8 |] %82

